ion/documents-outline.svg

<svg viewBox="0 0 512 512" xmlns="http://www.w3.org/2000/svg"><g stroke-width="32" stroke="#000" fill="none" stroke-linejoin="round"><path d="M336 264.13V436c0 24.3-19.05 44-42.95 44H107c-23.95 0-43-19.7-43-44V172v0c.14-24.25 19.75-43.86 44-44h94.12v0c6.58.01 12.88 2.66 17.49 7.36l109.15 111v0c4.64 4.74 7.24 11.12 7.24 17.77Z"/><path fill="none" stroke="#000" stroke-linecap="round" stroke-linejoin="round" stroke-width="32" d="M200 128v108 0c.18 15.38 12.61 27.81 28 28h108"/><path d="M176 128V76v0c.14-24.25 19.75-43.86 44-44h94v0c6.61 0 12.95 2.65 17.61 7.36l109.15 111v0c4.64 4.69 7.24 11.03 7.24 17.64v172c0 24.3-19.05 44-42.95 44H344"/><path fill="none" stroke="#000" stroke-linecap="round" stroke-linejoin="round" stroke-width="32" d="M312 32v108 0c.18 15.38 12.61 27.81 28 28h108"/></g></svg>

<svg xmlns="http://www.w3.org/2000/svg" width="512" height="512" viewBox="0 0 512 512"><path d="M336,264.13V436c0,24.3-19.05,44-42.95,44H107C83.05,480,64,460.3,64,436V172a44.26,44.26,0,0,1,44-44h94.12a24.55,24.55,0,0,1,17.49,7.36l109.15,111A25.4,25.4,0,0,1,336,264.13Z" style="fill:none;stroke:#000;stroke-linejoin:round;stroke-width:32px"/><path d="M200,128V236a28.34,28.34,0,0,0,28,28H336" style="fill:none;stroke:#000;stroke-linecap:round;stroke-linejoin:round;stroke-width:32px"/><path d="M176,128V76a44.26,44.26,0,0,1,44-44h94a24.83,24.83,0,0,1,17.61,7.36l109.15,111A25.09,25.09,0,0,1,448,168V340c0,24.3-19.05,44-42.95,44H344" style="fill:none;stroke:#000;stroke-linejoin:round;stroke-width:32px"/><path d="M312,32V140a28.34,28.34,0,0,0,28,28H448" style="fill:none;stroke:#000;stroke-linecap:round;stroke-linejoin:round;stroke-width:32px"/></svg>
